public/library/solstice-labs-icon-light.svg

<svg width="34" height="34" viewBox="0 0 34 34" fill="none" xmlns="http://www.w3.org/2000/svg">
<path d="M24.4379 1.95189L11.124 33.024C19.2987 35.9787 28.4434 32.026 31.9669 23.7995C35.4919 15.573 32.1198 6.05254 24.4364 1.95032L24.4379 1.95189ZM16.3791 26.1276L23.0106 10.5294C23.5466 11.0741 24.0085 11.6817 24.3885 12.3365L18.6143 25.9167C17.8852 26.0804 17.1345 26.1528 16.3791 26.1276ZM24.8982 20.6543C24.0842 22.5543 22.7109 24.0293 21.0612 24.9691L25.3725 14.7623C25.8436 16.6591 25.7262 18.7229 24.8982 20.6543Z" fill="white"/>
<path d="M8.46855 13.3457C10.3129 9.04193 15.0181 6.91684 19.3186 8.27218L22.4173 1.04054C14.1979 -2.03534 4.94815 1.9142 1.39839 10.1989C-2.15136 18.4837 1.2949 28.0828 9.09571 32.1347L12.1944 24.903C8.29555 22.6095 6.62725 17.6478 8.4701 13.3441L8.46855 13.3457Z" fill="white"/>
</svg>

<svg xmlns="http://www.w3.org/2000/svg" width="34" height="34" fill="none" viewBox="0 0 34 34"><path fill="#fff" d="M24.438 1.952 11.124 33.024c8.175 2.955 17.32-.998 20.843-9.225 3.525-8.226.153-17.746-7.53-21.849zm-8.059 24.176 6.632-15.599a9 9 0 0 1 1.378 1.807l-5.775 13.58c-.729.164-1.48.237-2.235.212m8.52-5.474a9.04 9.04 0 0 1-3.838 4.315l4.311-10.207a9.25 9.25 0 0 1-.474 5.892M8.469 13.346c1.844-4.304 6.55-6.43 10.85-5.074l3.098-7.231c-8.22-3.076-17.469.873-21.019 9.158s-.103 17.884 7.698 21.936l3.098-7.232C8.296 22.61 6.627 17.648 8.47 13.344z"/></svg>
